svgs/duotone/truck.svg

<svg xmlns="http://www.w3.org/2000/svg" viewBox="0 0 640 512"><!-- Font Awesome Pro 6.0.0-alpha2 by @fontawesome - https://fontawesome.com License - https://fontawesome.com/license (Commercial License) --><defs><style>.fa-secondary{opacity:.4}</style></defs><path d="M464 352C419.816 352 384 387.816 384 432C384 476.182 419.816 512 464 512S544 476.182 544 432C544 387.816 508.184 352 464 352ZM176 352C131.816 352 96 387.816 96 432C96 476.182 131.816 512 176 512S256 476.182 256 432C256 387.816 220.184 352 176 352Z" class="fa-secondary"/><path d="M624 416C632.812 416 640 408.797 640 400V368C640 359.203 632.812 352 624 352H608V237.25C608 220.156 601.344 204.094 589.25 192L512 114.75C500.094 102.828 483.594 96 466.75 96H416V48C416 21.5 394.5 0 368 0H48C21.5 0 0 21.5 0 48V368C0 394.5 21.5 416 48 416H66.158C74.027 361.926 119.777 320 176 320C232.279 320 278.535 361.861 286.383 416H353.617C361.465 361.861 407.721 320 464 320C520.223 320 565.973 361.926 573.842 416H624ZM416 256V160H466.75L544 237.25V256H416Z" class="fa-primary"/></svg>

<svg xmlns="http://www.w3.org/2000/svg" viewBox="0 0 640 512"><!-- Font Awesome Pro 5.15.1 by @fontawesome - https://fontawesome.com License - https://fontawesome.com/license (Commercial License) --><defs><style>.fa-secondary{opacity:.4}</style></defs><path d="M176 352a80 80 0 1 0 80 80 80 80 0 0 0-80-80zm288 0a80 80 0 1 0 80 80 80 80 0 0 0-80-80z" class="fa-secondary"/><path d="M624 352h-16V243.9a48 48 0 0 0-14.1-33.9L494 110.1A48 48 0 0 0 460.1 96H416V48a48 48 0 0 0-48-48H48A48 48 0 0 0 0 48v320a48 48 0 0 0 48 48h18.16C74 361.93 119.78 320 176 320s102.54 41.86 110.38 96h67.24c7.85-54.14 54.1-96 110.38-96s102 41.93 109.84 96H624a16 16 0 0 0 16-16v-32a16 16 0 0 0-16-16zm-64-96H416V144h44.1l99.9 99.9z" class="fa-primary"/></svg>
